flaticon/web-design/search.svg

<svg xmlns="http://www.w3.org/2000/svg" width="32" height="32" viewBox="0 0 24 24">
    <path d="M20.070312 7.378906L15.59375 4.128906C15.425781 4.007812 15.195312 4.042969 15.074219 4.210938 14.953125 4.375 14.992188 4.605469 15.15625 4.726562L19.632812 7.976562C19.699219 8.027344 19.777344 8.050781 19.851562 8.050781 19.964844 8.050781 20.078125 7.996094 20.152344 7.894531 20.273438 7.730469 20.234375 7.5 20.070312 7.378906zM9.039062 5.601562C9.007812 5.398438 8.816406 5.261719 8.617188 5.292969L3.152344 6.160156C2.949219 6.191406 2.8125 6.382812 2.84375 6.582031 2.871094 6.765625 3.027344 6.894531 3.207031 6.894531 3.226562 6.894531 3.246094 6.894531 3.265625 6.890625L8.730469 6.023438C8.933594 5.992188 9.074219 5.800781 9.039062 5.601562zM9.039062 5.601562"/>
    <path d="M 23.847656 6.214844 L 15.53125 0.175781 C 15.453125 0.117188 15.351562 0.09375 15.253906 0.109375 C 15.15625 0.125 15.070312 0.175781 15.011719 0.257812 L 11.386719 5.25 L 10.886719 2.105469 C 10.871094 2.007812 10.816406 1.921875 10.738281 1.863281 C 10.660156 1.804688 10.558594 1.78125 10.464844 1.796875 L 0.3125 3.40625 C 0.109375 3.441406 -0.0273438 3.628906 0.00390625 3.832031 L 1.988281 16.324219 C 2.003906 16.421875 2.054688 16.507812 2.136719 16.566406 C 2.199219 16.613281 2.273438 16.636719 2.351562 16.636719 C 2.371094 16.636719 2.390625 16.636719 2.410156 16.632812 L 4.742188 16.261719 L 4.742188 20.238281 C 4.742188 20.445312 4.910156 20.609375 5.113281 20.609375 L 15.390625 20.609375 C 15.597656 20.609375 15.761719 20.445312 15.761719 20.238281 L 15.761719 19.195312 C 16.015625 19.046875 16.257812 18.878906 16.480469 18.6875 L 17.402344 19.613281 L 17.105469 19.910156 C 16.960938 20.054688 16.960938 20.289062 17.105469 20.433594 L 20.460938 23.789062 C 20.53125 23.859375 20.628906 23.894531 20.722656 23.894531 C 20.816406 23.894531 20.910156 23.859375 20.984375 23.789062 L 22.101562 22.667969 C 22.171875 22.601562 22.210938 22.503906 22.210938 22.40625 C 22.210938 22.308594 22.171875 22.214844 22.101562 22.144531 L 18.746094 18.792969 C 18.679688 18.722656 18.585938 18.683594 18.484375 18.683594 C 18.386719 18.683594 18.292969 18.722656 18.222656 18.792969 L 17.925781 19.089844 L 17.003906 18.164062 C 17.734375 17.3125 18.132812 16.238281 18.132812 15.101562 C 18.132812 14.980469 18.128906 14.855469 18.121094 14.734375 L 23.929688 6.730469 C 24.050781 6.566406 24.011719 6.332031 23.847656 6.214844 Z M 18.484375 19.578125 L 21.316406 22.40625 L 20.722656 23 L 17.890625 20.171875 Z M 4.742188 7.589844 L 4.742188 9.109375 L 3.644531 9.28125 C 3.445312 9.316406 3.304688 9.503906 3.339844 9.707031 C 3.367188 9.890625 3.523438 10.019531 3.703125 10.019531 C 3.722656 10.019531 3.742188 10.019531 3.761719 10.015625 L 4.742188 9.859375 L 4.742188 12.308594 L 4.140625 12.40625 C 3.941406 12.4375 3.800781 12.628906 3.832031 12.828125 C 3.863281 13.011719 4.019531 13.144531 4.199219 13.144531 C 4.21875 13.144531 4.238281 13.140625 4.257812 13.136719 L 4.742188 13.0625 L 4.742188 15.511719 L 2.660156 15.84375 L 0.792969 4.082031 L 10.214844 2.585938 L 10.769531 6.101562 L 9.957031 7.21875 L 5.113281 7.21875 C 4.910156 7.21875 4.742188 7.386719 4.742188 7.589844 Z M 15.019531 19.867188 L 5.484375 19.867188 L 5.484375 7.960938 L 10.144531 7.960938 C 10.148438 7.960938 10.148438 7.960938 10.148438 7.960938 L 15.019531 7.960938 L 15.019531 10.664062 C 14.507812 10.476562 13.96875 10.382812 13.414062 10.382812 C 13.3125 10.382812 13.207031 10.386719 13.105469 10.390625 C 13.078125 10.386719 13.050781 10.382812 13.019531 10.382812 L 7.484375 10.382812 C 7.28125 10.382812 7.113281 10.546875 7.113281 10.753906 C 7.113281 10.957031 7.28125 11.121094 7.484375 11.121094 L 10.875 11.121094 C 10.476562 11.378906 10.109375 11.695312 9.796875 12.070312 C 9.429688 12.511719 9.148438 13.003906 8.960938 13.542969 L 7.484375 13.542969 C 7.28125 13.542969 7.113281 13.710938 7.113281 13.914062 C 7.113281 14.121094 7.28125 14.285156 7.484375 14.285156 L 8.765625 14.285156 C 8.71875 14.554688 8.695312 14.828125 8.695312 15.101562 C 8.695312 15.65625 8.789062 16.195312 8.976562 16.707031 L 7.484375 16.707031 C 7.28125 16.707031 7.113281 16.871094 7.113281 17.078125 C 7.113281 17.28125 7.28125 17.449219 7.484375 17.449219 L 9.320312 17.449219 C 10.164062 18.914062 11.710938 19.820312 13.414062 19.820312 C 13.972656 19.820312 14.507812 19.726562 15.019531 19.539062 Z M 16.226562 17.914062 C 15.933594 18.207031 15.59375 18.453125 15.222656 18.644531 C 14.660156 18.933594 14.050781 19.078125 13.414062 19.078125 C 11.914062 19.078125 10.554688 18.246094 9.871094 16.90625 C 9.582031 16.34375 9.4375 15.738281 9.4375 15.101562 C 9.4375 14.734375 9.488281 14.367188 9.589844 14.015625 C 9.742188 13.472656 10.003906 12.980469 10.367188 12.546875 C 11.125 11.640625 12.234375 11.121094 13.414062 11.121094 C 14.050781 11.121094 14.660156 11.269531 15.222656 11.558594 C 16.421875 12.171875 17.226562 13.332031 17.367188 14.667969 C 17.371094 14.667969 17.371094 14.667969 17.371094 14.667969 C 17.382812 14.8125 17.394531 14.957031 17.394531 15.101562 C 17.394531 16.164062 16.980469 17.160156 16.226562 17.914062 Z M 17.933594 13.730469 C 17.585938 12.585938 16.816406 11.613281 15.761719 11.007812 L 15.761719 9.074219 L 17.777344 10.539062 C 17.84375 10.585938 17.917969 10.609375 17.992188 10.609375 C 18.109375 10.609375 18.222656 10.554688 18.292969 10.457031 C 18.414062 10.289062 18.378906 10.058594 18.210938 9.9375 L 15.761719 8.160156 L 15.761719 7.589844 C 15.761719 7.386719 15.597656 7.21875 15.390625 7.21875 L 14.46875 7.21875 L 13.734375 6.6875 C 13.566406 6.566406 13.335938 6.601562 13.214844 6.769531 C 13.117188 6.90625 13.125 7.09375 13.230469 7.21875 L 10.875 7.21875 L 11.460938 6.410156 L 15.394531 0.992188 L 23.113281 6.59375 Z M 17.933594 13.730469"/>
    <path d="M 13.414062 11.960938 C 11.683594 11.960938 10.277344 13.371094 10.277344 15.101562 C 10.277344 16.832031 11.683594 18.238281 13.414062 18.238281 C 15.144531 18.238281 16.550781 16.832031 16.550781 15.101562 C 16.550781 13.371094 15.144531 11.960938 13.414062 11.960938 Z M 13.414062 17.496094 C 12.09375 17.496094 11.019531 16.421875 11.019531 15.101562 C 11.019531 13.777344 12.09375 12.703125 13.414062 12.703125 C 14.738281 12.703125 15.8125 13.777344 15.8125 15.101562 C 15.8125 16.421875 14.738281 17.496094 13.414062 17.496094 Z M 13.414062 17.496094"/>
    <path d="M14.46875 15.035156C14.324219 14.890625 14.089844 14.890625 13.945312 15.035156L12.957031 16.023438C12.8125 16.167969 12.8125 16.402344 12.957031 16.546875 13.027344 16.621094 13.121094 16.65625 13.21875 16.65625 13.3125 16.65625 13.40625 16.621094 13.480469 16.546875L14.46875 15.558594C14.613281 15.414062 14.613281 15.179688 14.46875 15.035156zM14.074219 13.453125C13.925781 13.308594 13.691406 13.308594 13.546875 13.453125L12.460938 14.542969C12.316406 14.6875 12.316406 14.921875 12.460938 15.066406 12.535156 15.136719 12.628906 15.175781 12.722656 15.175781 12.816406 15.175781 12.914062 15.136719 12.984375 15.066406L14.074219 13.980469C14.21875 13.835938 14.21875 13.597656 14.074219 13.453125zM14.074219 13.453125"/>
</svg>

<svg xmlns="http://www.w3.org/2000/svg" width="32" height="32" viewBox="0 0 24 24">
    <path d="M20.07 7.379l-4.476-3.25a.37.37 0 1 0-.438.598l4.477 3.25a.36.36 0 0 0 .219.074.374.374 0 0 0 .3-.156.37.37 0 0 0-.082-.516zm0 0M9.04 5.602a.37.37 0 0 0-.423-.309l-5.465.867a.37.37 0 0 0 .055.735c.02 0 .04 0 .059-.004l5.464-.868a.367.367 0 0 0 .31-.421zm0 0"/>
    <path d="M23.848 6.215L15.53.175a.368.368 0 0 0-.277-.066.364.364 0 0 0-.242.149L11.387 5.25l-.5-3.145a.379.379 0 0 0-.149-.242.362.362 0 0 0-.273-.066L.313 3.407a.374.374 0 0 0-.31.425l1.985 12.492a.364.364 0 0 0 .149.242c.062.047.136.07.215.07.02 0 .039 0 .058-.003l2.332-.371v3.976a.37.37 0 0 0 .371.371h10.278a.368.368 0 0 0 .37-.37v-1.044a4.87 4.87 0 0 0 .72-.508l.921.926-.297.297a.37.37 0 0 0 0 .524l3.356 3.355a.38.38 0 0 0 .523 0l1.118-1.121a.37.37 0 0 0 0-.523l-3.356-3.352a.37.37 0 0 0-.523 0l-.297.297-.922-.926a4.676 4.676 0 0 0 1.129-3.062c0-.122-.004-.247-.012-.368L23.93 6.73a.369.369 0 0 0-.082-.515zm-5.364 13.363l2.832 2.828-.593.594-2.832-2.828zM4.742 7.59v1.52l-1.097.171a.371.371 0 0 0-.305.426.366.366 0 0 0 .363.313c.02 0 .04 0 .059-.004l.98-.157v2.45l-.601.097a.373.373 0 0 0-.309.422.376.376 0 0 0 .367.317c.02 0 .04-.004.059-.008l.484-.075v2.45l-2.082.332L.793 4.082l9.422-1.496.555 3.516-.813 1.117H5.113a.373.373 0 0 0-.37.37zM15.02 19.867H5.484V7.961h9.536v2.703a4.646 4.646 0 0 0-1.606-.281c-.101 0-.207.004-.309.008-.027-.004-.054-.008-.085-.008H7.484a.37.37 0 0 0-.37.37.37.37 0 0 0 .37.368h3.391a4.713 4.713 0 0 0-1.914 2.422H7.484a.37.37 0 1 0 0 .742h1.282a4.767 4.767 0 0 0 .21 2.422H7.485a.37.37 0 1 0 0 .742H9.32a4.711 4.711 0 0 0 4.094 2.371 4.63 4.63 0 0 0 1.606-.28zm1.207-1.953c-.293.293-.633.54-1.004.73a3.92 3.92 0 0 1-1.809.434c-1.5 0-2.86-.832-3.543-2.172a3.904 3.904 0 0 1-.434-1.804c0-.368.051-.735.153-1.086a3.919 3.919 0 0 1 .777-1.47 3.96 3.96 0 0 1 4.856-.987 3.95 3.95 0 0 1 2.144 3.109h.004c.012.145.024.289.024.434a3.948 3.948 0 0 1-1.168 2.812zm1.707-4.184a4.715 4.715 0 0 0-2.172-2.722V9.074l2.015 1.465a.371.371 0 1 0 .434-.601L15.76 8.16v-.57a.37.37 0 0 0-.37-.371h-.922l-.735-.532a.37.37 0 0 0-.504.532h-2.355l.586-.809L15.395.992l7.718 5.602zm0 0"/>
    <path d="M13.414 11.96a3.14 3.14 0 0 0 0 6.277 3.14 3.14 0 0 0 0-6.276zm0 5.536a2.397 2.397 0 0 1 0-4.793 2.399 2.399 0 0 1 2.399 2.399 2.398 2.398 0 0 1-2.399 2.394zm0 0"/>
    <path d="M14.469 15.035a.37.37 0 0 0-.524 0l-.988.988a.37.37 0 0 0 0 .524.367.367 0 0 0 .523 0l.989-.988a.37.37 0 0 0 0-.524zm0 0M14.074 13.453a.375.375 0 0 0-.527 0l-1.086 1.09a.37.37 0 0 0 .523.523l1.09-1.086a.375.375 0 0 0 0-.527zm0 0"/>
</svg>
